X:2
T:Swallowtail Jig
C:Trad, Ir. (after CW)
M:6/8
L:1/8
Q:3/8=116
K:D
 EF |: GEE BEE | GEE BAG | FDD ADD | dcd AGF |
	GEE BEE | GEE B2 c | dcd AGF |1 GEE E2 F :|2 GEE E3 |
  |: Bcd e2 f | e2 f edB | Bcd e2 f | edB d3 |
   Bcd e2 f | e2 f edB | dcd AGF | GEE E3 :|
